X:1
T:Gunston, 87.87 D
T:Gunston, 87.87 D
T:Wilson Lee  Remsberg, 1888
T:Public Domain Courtesy of the Cyber Hymnal™
C:Wilson Lee  Remsberg, 1888
Z:Public Domain
Z:Courtesy of the Cyber Hymnal™
%%score ( 1 2 ) ( 3 4 )
L:1/8
Q:1/4=90
M:4/4
K:F
V:1 treble 
V:2 treble 
V:3 bass 
V:4 bass 
V:1
 [FA]>[FA] | [FA]3 [FA] [Fc]>[FA] | [FA]2 [EG]2 [EG]>[EG] | [Ec]3 [EG] [FA]>[GB] | %4
 [FA]4 [^FA]>[FA] | [^Fd]3 [FA] (3([FA]3/2[GB]/)[Ac] | [^Fc]2 [GB]2 [=FA]>[DG] | %7
 [CF]>[CE] [FA]3 [EG] | F4 [DB]>[DB] | [DB]3 [DB] (3(B3/2{B}c/)[Fd] | [Fd]2 [Fc]2 [Fc]>[Fd] | %11
 [Fc]3 [CB] [CA]>[CG] | A4 [DB]>[DB] | [DB]3 [DB] (3(B3/2{d'}c/[Fd]) | [Fd]2 [Fc]2 [Fc]>[GB] | %15
 [FA]3 [CF] [CG]>[CE] | [CF]4 |] %17
V:2
 x2 | x6 | x6 | x6 | x6 | x6 | x6 | x6 | F4 x2 | x4 D2 | x6 | x6 | (C2 _E2) x2 | x4 D2 | x6 | x6 | %16
 x4 |] %17
V:3
 [F,C]>[F,C] | [F,C]3 [F,C] [F,A,]>[F,C] | [C,C]2 [C,C]2 [C,C]>[C,C] | [C,G,]3 [C,C] [C,C]>[C,C] | %4
 [F,C]4 [D,D]>[D,D] | [D,A,]3 [D,D] (3:2:2[D,D]2 [D,D] | [D,A,]2 [G,,D]2 [A,,C]>[B,,B,] | %7
 [C,A,]>[C,G,] [C,C]3 [C,B,] | [F,A,]4 [B,,B,]>[B,,F,] | [B,,F,]3 [B,,F,] (3:2:2[B,,F,]2 [B,,B,] | %10
 [F,B,]2 [F,A,]2 [F,A,]>[F,B,] | [C,A,]3 [C,G,] [C,F,]>[C,E,] | (F,2 C2) [B,,B,]>[B,,F,] | %13
 [B,,F,]3 [B,,F,] (3:2:2[B,,F,]2 [B,,B,] | [F,B,]2 [F,A,]2 [A,,C]>[B,,D] | %15
 [C,C]3 [C,A,] [C,B,]>[C,G,] | [F,A,]4 |] %17
V:4
 x2 | x6 | x6 | x6 | x6 | x6 | x6 | x6 | x6 | x6 | x6 | x6 | F,4 x2 | x6 | x6 | x6 | x4 |] %17

